X:1
T:Title
%%score { 1 | 2 }
L:1/8
M:3/4
K:Eb
V:1 treble nm="Grand Piano"
V:2 bass 
V:1
 z2 z[Q:1/4=100] E EG | B2 GB [Ee][Ec] | B2 GB cB | [DA]2 [DF][DF] [DB][DB] |[M:3/8] G3 | GG[GB] | %6
[M:3/4] [FA][FA] [DF][DA] [DA][Dc] | B2 GG G[GB] | [FA]2 [EF][DF] [DB][DB] | [EG]4 z2 |] %10
V:2
 z2 z [E,G,] [E,G,][E,B,E] | [E,G,E]2 [E,B,E][E,G,E] [C,A,][A,,A,] | %2
 [E,G,E]2 [E,B,E][E,G,E] [E,A,E][E,G,E] | [B,,F,]2 [B,,B,][B,,B,] [B,,F,][B,,B,] | %4
[M:3/8] [E,B,E]3 | [E,B,E][E,B,E][E,B,] |[M:3/4] [B,,B,][B,,B,] [B,,B,][B,,F,] [B,,F,][B,,A,] | %7
 [E,G,E]2 [E,B,E][E,B,E] [E,B,E][E,B,] | [B,,B,]2 [B,,B,][B,,B,] [B,,F,][B,,B,] | [E,B,]4 z2 |] %10

